X: 1988
T: The Woodcutter's March
C:Angus Cameron, Westbury, Tas
B: australian traditional tunes wiki
M:4/4
L:1/8
R: March
Q: 1/4=100
K:D
V:1 
FG|:"D"A2f2f2A2|"G"B2g2g2B2|"A7"cBcde2A2|"D"dcdef2FG|
A2f2f2A2|"G"B2g2g2B2|"A7"cBcde2c2|1"D"e2d2d2FG:|2"D"e2d2d2fg||
|:"D"a2A2A2a^g|"Em"g2B2B2ed|"A7"cBcde2A2|"D"dcdef2fg|
a2A2A2a^g|"Em"g2B2B2ed|"A7"cBcde2c2|1"D"e2d2d2fg:|2"D"e2d2d2z2||
% abcbook-tune_id 6342d5be57e0f56f37629664


% abcbook-boost 0
% abcbook-tablature 
% abcbook-transpose 
% abcbook-lastupdated 1665324492677
% abcbook-soundfonts 
% abcbook-repeats 1
% NFF Book 2014

